X: 2080
T: At The Bend In The Road
R: slide
M: 12/8
K: Dmajor
|:AFA d2B AFA d2f|efe B2c B2A F2B|
A^GA d2B AFA d2f|1 efe B2c d3 dcB:|2 efe B2c d3 d2^g||
a3 afa b3 a2f|efe B2c B2A F2A|
a3 afa b3 a2f|efe B2c d3 d2^g|
a3 afa b3 a2f|efe B2c B2A F2B|
A^GA d2B AFA d2f|efe B2c d3 dcB||

